X:234
T:The Blackbird                                                                                     
M:4/4                                                                                               
L:1/8                                                                                               
K:DMix                                                                                              
dc|:(3Bcd Bd cABG|AGFG AB (3cBA|d^cde d=cAF|GBAF D2 DE|                                             
(3FED FG A2 fe|d2 d^c d=cAF|GBAF D2 D2|1 D6 dc :|2 D6 de||                                          
fd (3d^cd fdfg|abag fg (3agf|g2 gf gbag|fgfe d2 de|                                                 
fd (3d^cd fdfg|abag fgaf|gagf d2 d2|de fg a2 ag|                                                    
fg af g2 ge|=f3 e cA AB|cB cd ef (3gfe|a2 A3 G|                                                     
FG AB c2 ce|dcAF GBAF|1 (3DED CE D2 de:|2 (3DED CE D2 z2 |>|
